X:88
T:I'll dye my Ribbons
Z:Jack Campin - http://www.campin.me.uk
S:Blaikie MS (NLS MS.1578) p26
N:Blaikie #82
M:C
L:1/8
V:1 midi program 1 74
V:2 midi program 1 46 bass middle = d transpose -24
Q:1/4=100
K:D Mixolydian
[V:1] G>FED D2(E{F})G|A2 G/A/B A>G E2|G2E>D  D2EG|AAB{c}d B2A2||
[V:2] G2 g2 g2 g2    |f2 g2    c2  c2|g2 c2  B2G2|d2d2    g2d2||
%
[V:1] c>BAc d2 c>d   |e>dcd    cB  A2|G>FE>D D2EG|AAB{c}d B2A2|]
[V:2] a2 f2 g2 g2    |g2 g2    g2  d2|G2 g2  g2g2|d2d2    g2d2|]
W:Transcription (c) Jack Campin 2009, no mirroring or republication without permission

